setup-data/footprints/images/Ic-package-SOT-82.svg

<?xml version="1.0" encoding="UTF-8" standalone="no"?>
<svg
   xmlns:dc="http://purl.org/dc/elements/1.1/"
   xmlns:cc="http://creativecommons.org/ns#"
   xmlns:rdf="http://www.w3.org/1999/02/22-rdf-syntax-ns#"
   xmlns:svg="http://www.w3.org/2000/svg"
   xmlns="http://www.w3.org/2000/svg"
   xmlns:sodipodi="http://sodipodi.sourceforge.net/DTD/sodipodi-0.dtd"
   xmlns:inkscape="http://www.inkscape.org/namespaces/inkscape"
   version="1.0"
   inkscape:output_extension="org.inkscape.output.svg.inkscape"
   sodipodi:docname="Ic-package-SOT-82.svg"
   inkscape:version="1.0beta2 (2b71d25, 2019-12-03)"
   sodipodi:version="0.32"
   id="svg4539"
   height="306.6077"
   width="307.67816">
  <defs
     id="defs4541" />
  <sodipodi:namedview
     inkscape:window-maximized="0"
     fit-margin-bottom="20"
     fit-margin-right="20"
     fit-margin-left="20"
     lock-margins="true"
     fit-margin-top="20"
     showgrid="false"
     inkscape:document-rotation="0"
     height="75px"
     width="75px"
     inkscape:window-y="23"
     inkscape:window-x="1440"
     inkscape:window-height="1035"
     inkscape:window-width="1920"
     inkscape:current-layer="layer1"
     inkscape:document-units="px"
     inkscape:cy="77.772258"
     inkscape:cx="55.111286"
     inkscape:zoom="0.98994949"
     inkscape:pageshadow="2"
     inkscape:pageopacity="0.0"
     objecttolerance="10"
     guidetolerance="10"
     gridtolerance="10000"
     borderopacity="1.0"
     bordercolor="#666666"
     pagecolor="#ffffff"
     id="base" />
  <metadata
     id="metadata4544">
    <rdf:RDF>
      <cc:Work
         rdf:about="">
        <dc:format>image/svg+xml</dc:format>
        <dc:type
           rdf:resource="http://purl.org/dc/dcmitype/StillImage" />
        <dc:title></dc:title>
      </cc:Work>
    </rdf:RDF>
  </metadata>
  <g
     transform="translate(116.47422,115.33565)"
     id="layer1"
     inkscape:groupmode="layer"
     inkscape:label="Layer 1">
    <g
       transform="matrix(-4,0,0,4,6054.0278,-2399.24)"
       id="g4506">
      <path
         inkscape:connector-curvature="0"
         style="fill:none;fill-rule:evenodd;stroke:#000000;stroke-width:1px;stroke-linecap:butt;stroke-linejoin:miter;stroke-opacity:1"
         d="m 1471.7176,586.437 3.4784,3.7234 c 3.7521,-0.50026 5.8856,1.10029 5.8563,6.2687 l 8.5955,9.2008 19.6979,-10.35406 -8.9046,-9.28082 c -4.3776,-0.35377 -6.1934,-2.49774 -5.9355,-6.18634 l -3.0901,-3.22067 z"
         id="path4452"
         sodipodi:nodetypes="ccccccccc" />
      <path
         inkscape:connector-curvature="0"
         style="fill:none;fill-rule:evenodd;stroke:#000000;stroke-width:1px;stroke-linecap:butt;stroke-linejoin:miter;stroke-opacity:1"
         d="m 1471.465,586.18446 -0.2525,7.82868 18.4353,19.1929 v -7.82868"
         id="path4454" />
      <path
         inkscape:connector-curvature="0"
         style="fill:none;fill-rule:evenodd;stroke:#000000;stroke-width:1px;stroke-linecap:butt;stroke-linejoin:miter;stroke-opacity:1"
         d="m 1489.9157,613.83104 5.5431,-2.60831"
         id="path4456"
         sodipodi:nodetypes="cc" />
      <path
         inkscape:connector-curvature="0"
         style="fill:none;fill-rule:evenodd;stroke:#000000;stroke-width:1px;stroke-linecap:butt;stroke-linejoin:miter;stroke-opacity:1"
         d="m 1509.3457,595.0233 0.063,8.46002"
         id="path4458"
         sodipodi:nodetypes="cc" />
      <path
         inkscape:connector-curvature="0"
         style="fill:none;fill-rule:evenodd;stroke:#000000;stroke-width:1px;stroke-linecap:butt;stroke-linejoin:miter;stroke-opacity:1"
         d="m 1495.5824,605.88244 -2.0203,1.13642 30.9359,33.4613 1.7832,-1.0688 z"
         id="path4460"
         sodipodi:nodetypes="ccccc" />
      <path
         inkscape:connector-curvature="0"
         style="fill:none;fill-rule:evenodd;stroke:#000000;stroke-width:1px;stroke-linecap:round;stroke-linejoin:bevel;stroke-opacity:1"
         d="m 1493.3312,607.10815 10e-5,1.57387 31.3083,33.55058 -0.01,-1.78177"
         id="path4462"
         sodipodi:nodetypes="cccc" />
      <path
         inkscape:connector-curvature="0"
         style="fill:none;fill-rule:evenodd;stroke:#000000;stroke-width:1px;stroke-linecap:round;stroke-linejoin:miter;stroke-opacity:1"
         d="m 1526.4597,639.58993 -0.045,1.37233 -1.9247,1.16575"
         id="path4464"
         sodipodi:nodetypes="ccc" />
      <ellipse
         ry="3.7880719"
         rx="4.6719556"
         cy="584.28278"
         cx="1418.1279"
         style="opacity:1;fill:none;fill-opacity:1;fill-rule:nonzero;stroke:#000000;stroke-width:1;stroke-linejoin:round;stroke-miterlimit:4;stroke-dasharray:none;stroke-opacity:1"
         id="path4466"
         transform="translate(69.878422,3.7957377)" />
      <path
         inkscape:connector-curvature="0"
         style="fill:none;fill-rule:evenodd;stroke:#000000;stroke-width:1px;stroke-linecap:butt;stroke-linejoin:miter;stroke-opacity:1"
         d="m 1483.3343,588.20477 c 3.2488,-2.77791 6.3054,-2.4808 9.2177,0.12627"
         id="path4468"
         sodipodi:nodetypes="cc" />
      <path
         inkscape:connector-curvature="0"
         style="fill:none;fill-rule:evenodd;stroke:#000000;stroke-width:1px;stroke-linecap:butt;stroke-linejoin:miter;stroke-opacity:1"
         d="m 1471.3388,590.60388 18.0564,18.81409"
         id="path4470" />
      <path
         inkscape:connector-curvature="0"
         style="fill:none;fill-rule:evenodd;stroke:#000000;stroke-width:1px;stroke-linecap:butt;stroke-linejoin:miter;stroke-opacity:1"
         d="m 1475.0006,594.13942 v -4.29315"
         id="path4472"
         sodipodi:nodetypes="cc" />
      <path
         inkscape:connector-curvature="0"
         style="fill:none;fill-rule:evenodd;stroke:#000000;stroke-width:1px;stroke-linecap:butt;stroke-linejoin:miter;stroke-opacity:1"
         d="m 1480.9352,600.83168 v -4.29315"
         id="path4474"
         sodipodi:nodetypes="cc" />
      <path
         inkscape:connector-curvature="0"
         style="fill:none;fill-rule:evenodd;stroke:#000000;stroke-width:1px;stroke-linecap:butt;stroke-linejoin:miter;stroke-opacity:1"
         d="m 1474.748,594.01314 c 3.6255,0.4375 6.126,2.10236 6.0609,6.566"
         id="path4476"
         sodipodi:nodetypes="cc" />
      <path
         inkscape:connector-curvature="0"
         style="fill:none;fill-rule:evenodd;stroke:#000000;stroke-width:1px;stroke-linecap:butt;stroke-linejoin:miter;stroke-opacity:1"
         d="m 1489.774,609.41797 3.283,-1.6415"
         id="path4478" />
      <path
         inkscape:connector-curvature="0"
         style="fill:none;fill-rule:evenodd;stroke:#000000;stroke-width:1px;stroke-linecap:butt;stroke-linejoin:miter;stroke-opacity:1"
         d="m 1495.9154,606.2644 3.283,-1.6415"
         id="path4480" />
      <path
         inkscape:connector-curvature="0"
         style="fill:none;fill-rule:evenodd;stroke:#000000;stroke-width:1px;stroke-linecap:butt;stroke-linejoin:miter;stroke-opacity:1"
         d="m 1501.4187,603.36578 2.4622,-1.32582"
         id="path4482"
         sodipodi:nodetypes="cc" />
      <path
         inkscape:connector-curvature="0"
         style="fill:none;fill-rule:evenodd;stroke:#000000;stroke-width:1px;stroke-linecap:butt;stroke-linejoin:miter;stroke-opacity:1"
         d="m 1506.9869,600.46083 2.5254,-1.19956"
         id="path4484"
         sodipodi:nodetypes="cc" />
      <path
         inkscape:connector-curvature="0"
         style="fill:none;fill-rule:evenodd;stroke:#000000;stroke-width:1px;stroke-linecap:butt;stroke-linejoin:miter;stroke-opacity:1"
         d="m 1498.8619,609.47868 2.3902,-1.10579"
         id="path4486"
         sodipodi:nodetypes="cc" />
      <path
         inkscape:connector-curvature="0"
         style="fill:none;fill-rule:evenodd;stroke:#000000;stroke-width:1px;stroke-linecap:butt;stroke-linejoin:miter;stroke-opacity:1"
         d="m 1504.6655,606.71082 2.5687,-1.28435"
         id="path4488"
         sodipodi:nodetypes="cc" />
      <g
         id="g4490"
         transform="translate(179.85876,-28.276607)">
        <path
           inkscape:connector-curvature="0"
           sodipodi:nodetypes="ccccc"
           id="path4492"
           d="m 1321.1086,631.13625 -2.0203,1.13642 30.9359,33.4613 1.7832,-1.0688 z"
           style="fill:none;fill-rule:evenodd;stroke:#000000;stroke-width:1px;stroke-linecap:butt;stroke-linejoin:miter;stroke-opacity:1" />
        <path
           inkscape:connector-curvature="0"
           sodipodi:nodetypes="cccc"
           id="path4494"
           d="m 1318.8574,632.36196 10e-5,1.57387 31.3083,33.55058 -0.01,-1.78177"
           style="fill:none;fill-rule:evenodd;stroke:#000000;stroke-width:1px;stroke-linecap:round;stroke-linejoin:bevel;stroke-opacity:1" />
        <path
           inkscape:connector-curvature="0"
           sodipodi:nodetypes="ccc"
           id="path4496"
           d="m 1351.9859,664.84374 -0.045,1.37233 -1.9247,1.16575"
           style="fill:none;fill-rule:evenodd;stroke:#000000;stroke-width:1px;stroke-linecap:round;stroke-linejoin:miter;stroke-opacity:1" />
      </g>
      <g
         id="g4498"
         transform="translate(185.03578,-31.054527)">
        <path
           inkscape:connector-curvature="0"
           sodipodi:nodetypes="ccccc"
           id="path4500"
           d="m 1321.1086,631.13625 -2.0203,1.13642 30.9359,33.4613 1.7832,-1.0688 z"
           style="fill:none;fill-rule:evenodd;stroke:#000000;stroke-width:1px;stroke-linecap:butt;stroke-linejoin:miter;stroke-opacity:1" />
        <path
           inkscape:connector-curvature="0"
           sodipodi:nodetypes="cccc"
           id="path4502"
           d="m 1318.8574,632.36196 10e-5,1.57387 31.3083,33.55058 -0.01,-1.78177"
           style="fill:none;fill-rule:evenodd;stroke:#000000;stroke-width:1px;stroke-linecap:round;stroke-linejoin:bevel;stroke-opacity:1" />
        <path
           inkscape:connector-curvature="0"
           sodipodi:nodetypes="ccc"
           id="path4504"
           d="m 1351.9859,664.84374 -0.045,1.37233 -1.9247,1.16575"
           style="fill:none;fill-rule:evenodd;stroke:#000000;stroke-width:1px;stroke-linecap:round;stroke-linejoin:miter;stroke-opacity:1" />
      </g>
    </g>
  </g>
</svg>

<?xml version="1.0" encoding="UTF-8" standalone="no"?>
<!-- Created with Inkscape (http://www.inkscape.org/) -->
<svg
   xmlns:dc="http://purl.org/dc/elements/1.1/"
   xmlns:cc="http://web.resource.org/cc/"
   xmlns:rdf="http://www.w3.org/1999/02/22-rdf-syntax-ns#"
   xmlns:svg="http://www.w3.org/2000/svg"
   xmlns="http://www.w3.org/2000/svg"
   xmlns:sodipodi="http://sodipodi.sourceforge.net/DTD/sodipodi-0.dtd"
   xmlns:inkscape="http://www.inkscape.org/namespaces/inkscape"
   width="75"
   height="75"
   id="svg4539"
   sodipodi:version="0.32"
   inkscape:version="0.45.1"
   sodipodi:docbase="/home/zymos/chip/package/homemade/next"
   sodipodi:docname="ic-package-SOT-82.svg"
   inkscape:output_extension="org.inkscape.output.svg.inkscape"
   version="1.0">
  <defs
     id="defs4541" />
  <sodipodi:namedview
     id="base"
     pagecolor="#ffffff"
     bordercolor="#666666"
     borderopacity="1.0"
     gridtolerance="10000"
     guidetolerance="10"
     objecttolerance="10"
     inkscape:pageopacity="0.0"
     inkscape:pageshadow="2"
     inkscape:zoom="0.98994949"
     inkscape:cx="179.05337"
     inkscape:cy="-37.563389"
     inkscape:document-units="px"
     inkscape:current-layer="layer1"
     inkscape:window-width="697"
     inkscape:window-height="581"
     inkscape:window-x="386"
     inkscape:window-y="291"
     width="75px"
     height="75px" />
  <metadata
     id="metadata4544">
    <rdf:RDF>
      <cc:Work
         rdf:about="">
        <dc:format>image/svg+xml</dc:format>
        <dc:type
           rdf:resource="http://purl.org/dc/dcmitype/StillImage" />
      </cc:Work>
    </rdf:RDF>
  </metadata>
  <g
     inkscape:label="Layer 1"
     inkscape:groupmode="layer"
     id="layer1">
    <g
       id="g4506"
       transform="translate(-1466.8009,-571.33384)">
      <path
         sodipodi:nodetypes="ccccccccc"
         id="path4452"
         d="M 1471.7176,586.437 L 1475.196,590.1604 C 1478.9481,589.66014 1481.0816,591.26069 1481.0523,596.4291 L 1489.6478,605.6299 L 1509.3457,595.27584 L 1500.4411,585.99502 C 1496.0635,585.64125 1494.2477,583.49728 1494.5056,579.80868 L 1491.4155,576.58801 L 1471.7176,586.437 z "
         style="fill:none;fill-rule:evenodd;stroke:#000000;stroke-width:1px;stroke-linecap:butt;stroke-linejoin:miter;stroke-opacity:1" />
      <path
         id="path4454"
         d="M 1471.465,586.18446 L 1471.2125,594.01314 L 1489.6478,613.20604 L 1489.6478,605.37736"
         style="fill:none;fill-rule:evenodd;stroke:#000000;stroke-width:1px;stroke-linecap:butt;stroke-linejoin:miter;stroke-opacity:1" />
      <path
         sodipodi:nodetypes="cc"
         id="path4456"
         d="M 1489.9157,613.83104 L 1495.4588,611.22273"
         style="fill:none;fill-rule:evenodd;stroke:#000000;stroke-width:1px;stroke-linecap:butt;stroke-linejoin:miter;stroke-opacity:1" />
      <path
         sodipodi:nodetypes="cc"
         id="path4458"
         d="M 1509.3457,595.0233 L 1509.4089,603.48332"
         style="fill:none;fill-rule:evenodd;stroke:#000000;stroke-width:1px;stroke-linecap:butt;stroke-linejoin:miter;stroke-opacity:1" />
      <path
         sodipodi:nodetypes="ccccc"
         id="path4460"
         d="M 1495.5824,605.88244 L 1493.5621,607.01886 L 1524.498,640.48016 L 1526.2812,639.41136 L 1495.5824,605.88244 z "
         style="fill:none;fill-rule:evenodd;stroke:#000000;stroke-width:1px;stroke-linecap:butt;stroke-linejoin:miter;stroke-opacity:1" />
      <path
         sodipodi:nodetypes="cccc"
         id="path4462"
         d="M 1493.3312,607.10815 L 1493.3313,608.68202 L 1524.6396,642.2326 L 1524.6319,640.45083"
         style="fill:none;fill-rule:evenodd;stroke:#000000;stroke-width:1px;stroke-linecap:round;stroke-linejoin:bevel;stroke-opacity:1" />
      <path
         sodipodi:nodetypes="ccc"
         id="path4464"
         d="M 1526.4597,639.58993 L 1526.415,640.96226 L 1524.4903,642.12801"
         style="fill:none;fill-rule:evenodd;stroke:#000000;stroke-width:1px;stroke-linecap:round;stroke-linejoin:miter;stroke-opacity:1" />
      <path
         transform="translate(69.878422,3.7957377)"
         d="M 1422.7999 584.28278 A 4.6719556 3.7880719 0 1 1  1413.456,584.28278 A 4.6719556 3.7880719 0 1 1  1422.7999 584.28278 z"
         sodipodi:ry="3.7880719"
         sodipodi:rx="4.6719556"
         sodipodi:cy="584.28278"
         sodipodi:cx="1418.1279"
         id="path4466"
         style="opacity:1;fill:none;fill-opacity:1;fill-rule:nonzero;stroke:#000000;stroke-width:1;stroke-linejoin:round;stroke-miterlimit:4;stroke-dasharray:none;stroke-opacity:1"
         sodipodi:type="arc" />
      <path
         sodipodi:nodetypes="cc"
         id="path4468"
         d="M 1483.3343,588.20477 C 1486.5831,585.42686 1489.6397,585.72397 1492.552,588.33104"
         style="fill:none;fill-rule:evenodd;stroke:#000000;stroke-width:1px;stroke-linecap:butt;stroke-linejoin:miter;stroke-opacity:1" />
      <path
         id="path4470"
         d="M 1471.3388,590.60388 L 1489.3952,609.41797"
         style="fill:none;fill-rule:evenodd;stroke:#000000;stroke-width:1px;stroke-linecap:butt;stroke-linejoin:miter;stroke-opacity:1" />
      <path
         sodipodi:nodetypes="cc"
         id="path4472"
         d="M 1475.0006,594.13942 L 1475.0006,589.84627"
         style="fill:none;fill-rule:evenodd;stroke:#000000;stroke-width:1px;stroke-linecap:butt;stroke-linejoin:miter;stroke-opacity:1" />
      <path
         sodipodi:nodetypes="cc"
         id="path4474"
         d="M 1480.9352,600.83168 L 1480.9352,596.53853"
         style="fill:none;fill-rule:evenodd;stroke:#000000;stroke-width:1px;stroke-linecap:butt;stroke-linejoin:miter;stroke-opacity:1" />
      <path
         sodipodi:nodetypes="cc"
         id="path4476"
         d="M 1474.748,594.01314 C 1478.3735,594.45064 1480.874,596.1155 1480.8089,600.57914"
         style="fill:none;fill-rule:evenodd;stroke:#000000;stroke-width:1px;stroke-linecap:butt;stroke-linejoin:miter;stroke-opacity:1" />
      <path
         id="path4478"
         d="M 1489.774,609.41797 L 1493.057,607.77647"
         style="fill:none;fill-rule:evenodd;stroke:#000000;stroke-width:1px;stroke-linecap:butt;stroke-linejoin:miter;stroke-opacity:1" />
      <path
         id="path4480"
         d="M 1495.9154,606.2644 L 1499.1984,604.6229"
         style="fill:none;fill-rule:evenodd;stroke:#000000;stroke-width:1px;stroke-linecap:butt;stroke-linejoin:miter;stroke-opacity:1" />
      <path
         sodipodi:nodetypes="cc"
         id="path4482"
         d="M 1501.4187,603.36578 L 1503.8809,602.03996"
         style="fill:none;fill-rule:evenodd;stroke:#000000;stroke-width:1px;stroke-linecap:butt;stroke-linejoin:miter;stroke-opacity:1" />
      <path
         sodipodi:nodetypes="cc"
         id="path4484"
         d="M 1506.9869,600.46083 L 1509.5123,599.26127"
         style="fill:none;fill-rule:evenodd;stroke:#000000;stroke-width:1px;stroke-linecap:butt;stroke-linejoin:miter;stroke-opacity:1" />
      <path
         sodipodi:nodetypes="cc"
         id="path4486"
         d="M 1498.8619,609.47868 L 1501.2521,608.37289"
         style="fill:none;fill-rule:evenodd;stroke:#000000;stroke-width:1px;stroke-linecap:butt;stroke-linejoin:miter;stroke-opacity:1" />
      <path
         sodipodi:nodetypes="cc"
         id="path4488"
         d="M 1504.6655,606.71082 L 1507.2342,605.42647"
         style="fill:none;fill-rule:evenodd;stroke:#000000;stroke-width:1px;stroke-linecap:butt;stroke-linejoin:miter;stroke-opacity:1" />
      <g
         transform="translate(179.85876,-28.276607)"
         id="g4490">
        <path
           style="fill:none;fill-rule:evenodd;stroke:#000000;stroke-width:1px;stroke-linecap:butt;stroke-linejoin:miter;stroke-opacity:1"
           d="M 1321.1086,631.13625 L 1319.0883,632.27267 L 1350.0242,665.73397 L 1351.8074,664.66517 L 1321.1086,631.13625 z "
           id="path4492"
           sodipodi:nodetypes="ccccc" />
        <path
           style="fill:none;fill-rule:evenodd;stroke:#000000;stroke-width:1px;stroke-linecap:round;stroke-linejoin:bevel;stroke-opacity:1"
           d="M 1318.8574,632.36196 L 1318.8575,633.93583 L 1350.1658,667.48641 L 1350.1581,665.70464"
           id="path4494"
           sodipodi:nodetypes="cccc" />
        <path
           style="fill:none;fill-rule:evenodd;stroke:#000000;stroke-width:1px;stroke-linecap:round;stroke-linejoin:miter;stroke-opacity:1"
           d="M 1351.9859,664.84374 L 1351.9412,666.21607 L 1350.0165,667.38182"
           id="path4496"
           sodipodi:nodetypes="ccc" />
      </g>
      <g
         transform="translate(185.03578,-31.054527)"
         id="g4498">
        <path
           style="fill:none;fill-rule:evenodd;stroke:#000000;stroke-width:1px;stroke-linecap:butt;stroke-linejoin:miter;stroke-opacity:1"
           d="M 1321.1086,631.13625 L 1319.0883,632.27267 L 1350.0242,665.73397 L 1351.8074,664.66517 L 1321.1086,631.13625 z "
           id="path4500"
           sodipodi:nodetypes="ccccc" />
        <path
           style="fill:none;fill-rule:evenodd;stroke:#000000;stroke-width:1px;stroke-linecap:round;stroke-linejoin:bevel;stroke-opacity:1"
           d="M 1318.8574,632.36196 L 1318.8575,633.93583 L 1350.1658,667.48641 L 1350.1581,665.70464"
           id="path4502"
           sodipodi:nodetypes="cccc" />
        <path
           style="fill:none;fill-rule:evenodd;stroke:#000000;stroke-width:1px;stroke-linecap:round;stroke-linejoin:miter;stroke-opacity:1"
           d="M 1351.9859,664.84374 L 1351.9412,666.21607 L 1350.0165,667.38182"
           id="path4504"
           sodipodi:nodetypes="ccc" />
      </g>
    </g>
  </g>
</svg>
